public/images/well/outline/8.svg

<svg width="100%" height="100%" preserveAspectRatio="none" viewBox="0 0 180 180" fill="none" xmlns="http://www.w3.org/2000/svg">
<path fill-rule="evenodd" clip-rule="evenodd" d="M180 0H0V180H180V0ZM108.701 40.1218C114.577 40.1218 120.452 37.9651 125.027 33.6357L146.365 54.9731C142.21 59.3817 139.879 65.4237 139.879 71.2992C139.879 77.1747 142.051 82.8282 145.952 87.1813L144.049 89.0843C134.756 98.3773 134.756 113.435 144.049 122.728L146.357 125.035L125.027 146.364L122.72 144.057C118.264 139.593 112.206 137.087 105.902 137.087C99.5984 137.087 93.5485 139.593 89.0844 144.057L87.1814 145.96C82.6697 141.908 77.1748 139.886 71.2993 139.886C65.4238 139.886 59.5483 142.043 54.9731 146.372L33.6357 125.035C37.7906 120.626 40.1218 114.584 40.1218 108.709C40.1218 102.833 37.9492 97.18 34.0481 92.8269L35.9511 90.9239C45.2441 81.6309 45.2441 66.5734 35.9511 57.2805L33.6437 54.9731L54.9731 33.6437L57.2805 35.9511C61.919 40.5975 68.0166 42.9208 74.0983 42.9208C80.1799 42.9208 86.2695 40.5975 90.916 35.9511L92.819 34.0481C97.3307 38.0999 102.826 40.1218 108.701 40.1218Z" fill="white"/>
<path d="M179.572 87.2126L171.619 79.2597L163.666 71.3067L180 54.9727L125.035 0.0078125L108.701 16.3419L92.795 0.435981L74.0981 19.1329L54.9729 0.0078125L0.00793457 54.9727L19.1331 74.0978L0.43614 92.7947L16.342 108.701L0.00793457 125.035L54.9729 180L71.307 163.665L79.26 171.618L87.2128 179.571L105.91 160.874L125.035 180L180 125.035L160.875 105.91L179.572 87.2126ZM145.952 87.1888L144.049 89.0918C134.756 98.3848 134.756 113.442 144.049 122.735L146.356 125.043L125.027 146.372L122.72 144.065C118.256 139.601 112.206 137.095 105.902 137.095C99.5981 137.095 93.5404 139.601 89.0842 144.065L87.1812 145.968C82.6695 141.916 76.9843 139.894 71.2991 139.894C65.6138 139.894 59.5481 142.059 54.9729 146.38L33.6355 125.043C37.7983 120.634 40.1216 114.79 40.1216 108.716C40.1216 102.643 37.949 97.1875 34.0479 92.8344L35.9509 90.9314C45.2439 81.6384 45.2439 66.581 35.9509 57.288L33.6435 54.9806L54.9729 33.6512L57.2803 35.9586C61.9267 40.6051 68.0164 42.9283 74.0981 42.9283C80.1797 42.9283 86.2772 40.6051 90.9158 35.9586L92.8188 34.0556C97.3305 38.1074 103.016 40.1293 108.701 40.1293C114.386 40.1293 120.452 37.9647 125.027 33.6433L146.364 54.9806C142.202 59.3892 139.878 65.233 139.878 71.3067C139.878 77.3805 142.051 82.8357 145.952 87.1888Z" fill="current"/>
<mask id="mask0_3125_5583" style="mask-type:luminance" maskUnits="userSpaceOnUse" x="0" y="0" width="180" height="180">
<path d="M125.027 33.6355L146.364 54.9728C142.202 59.3814 139.878 65.2252 139.878 71.2989C139.878 77.3727 142.051 82.8279 145.952 87.181L144.049 89.084C134.756 98.377 134.756 113.434 144.049 122.727L146.356 125.035L125.027 146.364L122.72 144.057C118.256 139.593 112.206 137.087 105.902 137.087C99.5981 137.087 93.5404 139.593 89.0842 144.057L87.1812 145.96C82.6695 141.908 76.9843 139.886 71.2991 139.886C65.6138 139.886 59.5481 142.051 54.9729 146.372L33.6355 125.035C37.7983 120.626 40.1216 114.782 40.1216 108.709C40.1216 102.635 37.949 97.1797 34.0479 92.8266L35.9509 90.9236C45.2439 81.6306 45.2439 66.5732 35.9509 57.2802L33.6435 54.9728L54.9729 33.6434L57.2803 35.9508C61.9267 40.5973 68.0164 42.9205 74.0981 42.9205C80.1797 42.9205 86.2772 40.5973 90.9158 35.9508L92.8188 34.0478C97.3305 38.0996 103.016 40.1215 108.701 40.1215C114.386 40.1215 120.452 37.9568 125.027 33.6355ZM125.035 0L108.701 16.334L92.795 0.428175L74.0981 19.1251L54.9729 0L0.00793457 54.9649L19.1331 74.09L0.43614 92.7869L16.342 108.693L0.00793457 125.027L54.9729 179.992L71.307 163.658L87.2128 179.564L105.91 160.867L125.035 179.992L180 125.027L160.875 105.902L179.572 87.2048L163.666 71.2989L180 54.9649L125.035 0Z" fill="current"/>
</mask>
<g mask="url(#mask0_3125_5583)">
<path opacity='0.5' d="M90.9873 90.0041V-44.6963" stroke="white" stroke-miterlimit="10"/>
<path opacity='0.5' d="M90.9877 90.0044L79.2446 -44.1807" stroke="white" stroke-miterlimit="10"/>
<path opacity='0.5' d="M90.9876 90.0043L67.5966 -42.6504" stroke="white" stroke-miterlimit="10"/>
<path opacity='0.5' d="M90.988 90.004L56.1235 -40.1055" stroke="white" stroke-miterlimit="10"/>
<path opacity='0.5' d="M90.9876 90.0037L44.9192 -36.5693" stroke="white" stroke-miterlimit="10"/>
<path opacity='0.5' d="M90.9876 90.004L34.0642 -32.0732" stroke="white" stroke-miterlimit="10"/>
<path opacity='0.5' d="M90.9882 90.0033L23.6379 -26.6504" stroke="white" stroke-miterlimit="10"/>
<path opacity='0.5' d="M90.988 90.0042L13.7263 -20.3379" stroke="white" stroke-miterlimit="10"/>
<path opacity='0.5' d="M90.9877 90.0043L4.40918 -13.1777" stroke="white" stroke-miterlimit="10"/>
<path opacity='0.5' d="M90.9874 90.0038L-4.25769 -5.24121" stroke="white" stroke-miterlimit="10"/>
<path opacity='0.5' d="M90.9875 90.0033L-12.1947 3.41699" stroke="white" stroke-miterlimit="10"/>
<path opacity='0.5' d="M90.9877 90.0048L-19.3466 12.7432" stroke="white" stroke-miterlimit="10"/>
<path opacity='0.5' d="M90.9878 90.0045L-25.666 22.6543" stroke="white" stroke-miterlimit="10"/>
<path opacity='0.5' d="M90.9874 90.0045L-31.09 33.0732" stroke="white" stroke-miterlimit="10"/>
<path opacity='0.5' d="M90.9878 90.0049L-35.5854 43.9365" stroke="white" stroke-miterlimit="10"/>
<path opacity='0.5' d="M90.988 90.0051L-39.1216 55.1406" stroke="white" stroke-miterlimit="10"/>
<path opacity='0.5' d="M90.9872 90.0043L-41.6597 66.6133" stroke="white" stroke-miterlimit="10"/>
<path opacity='0.5' d="M90.9876 90.0048L-43.1976 78.2617" stroke="white" stroke-miterlimit="10"/>
<path opacity='0.5' d="M90.9875 90.0039H-43.7131" stroke="white" stroke-miterlimit="10"/>
<path opacity='0.5' d="M90.9876 90.0039L-43.1976 101.739" stroke="white" stroke-miterlimit="10"/>
<path opacity='0.5' d="M90.9872 90.0039L-41.6597 113.395" stroke="white" stroke-miterlimit="10"/>
<path opacity='0.5' d="M90.988 90.0039L-39.1216 124.86" stroke="white" stroke-miterlimit="10"/>
<path opacity='0.5' d="M90.9878 90.0039L-35.5854 136.072" stroke="white" stroke-miterlimit="10"/>
<path opacity='0.5' d="M90.9874 90.0039L-31.09 146.927" stroke="white" stroke-miterlimit="10"/>
<path opacity='0.5' d="M90.9878 90.0039L-25.666 157.346" stroke="white" stroke-miterlimit="10"/>
<path opacity='0.5' d="M90.9877 90.0039L-19.3466 167.258" stroke="white" stroke-miterlimit="10"/>
<path opacity='0.5' d="M90.9875 90.0039L-12.1947 176.582" stroke="white" stroke-miterlimit="10"/>
<path opacity='0.5' d="M90.9874 90.0039L-4.25769 185.249" stroke="white" stroke-miterlimit="10"/>
<path opacity='0.5' d="M90.9877 90.0039L4.40918 193.186" stroke="white" stroke-miterlimit="10"/>
<path opacity='0.5' d="M90.988 90.0039L13.7263 200.338" stroke="white" stroke-miterlimit="10"/>
<path opacity='0.5' d="M90.9882 90.0039L23.6379 206.65" stroke="white" stroke-miterlimit="10"/>
<path opacity='0.5' d="M90.9876 90.0039L34.0642 212.081" stroke="white" stroke-miterlimit="10"/>
<path opacity='0.5' d="M90.9876 90.0039L44.9192 216.577" stroke="white" stroke-miterlimit="10"/>
<path opacity='0.5' d="M90.988 90.0039L56.1235 220.105" stroke="white" stroke-miterlimit="10"/>
<path opacity='0.5' d="M90.9876 90.0039L67.5966 222.651" stroke="white" stroke-miterlimit="10"/>
<path opacity='0.5' d="M90.9877 90.0039L79.2446 224.181" stroke="white" stroke-miterlimit="10"/>
<path opacity='0.5' d="M90.9873 90.0039V224.696" stroke="white" stroke-miterlimit="10"/>
<path opacity='0.5' d="M90.9873 90.0039L102.723 224.181" stroke="white" stroke-miterlimit="10"/>
<path opacity='0.5' d="M90.9873 90.0039L114.378 222.651" stroke="white" stroke-miterlimit="10"/>
<path opacity='0.5' d="M90.9873 90.0039L125.852 220.105" stroke="white" stroke-miterlimit="10"/>
<path opacity='0.5' d="M90.9873 90.0039L137.056 216.577" stroke="white" stroke-miterlimit="10"/>
<path opacity='0.5' d="M90.9873 90.0039L147.911 212.081" stroke="white" stroke-miterlimit="10"/>
<path opacity='0.5' d="M90.9873 90.0039L158.338 206.65" stroke="white" stroke-miterlimit="10"/>
<path opacity='0.5' d="M90.9873 90.0039L168.249 200.338" stroke="white" stroke-miterlimit="10"/>
<path opacity='0.5' d="M90.9873 90.0039L177.566 193.186" stroke="white" stroke-miterlimit="10"/>
<path opacity='0.5' d="M90.9873 90.0039L186.232 185.249" stroke="white" stroke-miterlimit="10"/>
<path opacity='0.5' d="M90.9873 90.0039L194.169 176.582" stroke="white" stroke-miterlimit="10"/>
<path opacity='0.5' d="M90.9873 90.0039L201.322 167.258" stroke="white" stroke-miterlimit="10"/>
<path opacity='0.5' d="M90.9873 90.0039L207.633 157.346" stroke="white" stroke-miterlimit="10"/>
<path opacity='0.5' d="M90.9873 90.0039L213.065 146.927" stroke="white" stroke-miterlimit="10"/>
<path opacity='0.5' d="M90.9873 90.0039L217.561 136.072" stroke="white" stroke-miterlimit="10"/>
<path opacity='0.5' d="M90.9873 90.0039L221.097 124.86" stroke="white" stroke-miterlimit="10"/>
<path opacity='0.5' d="M90.9873 90.0039L223.634 113.395" stroke="white" stroke-miterlimit="10"/>
<path opacity='0.5' d="M90.9873 90.0039L225.173 101.739" stroke="white" stroke-miterlimit="10"/>
<path opacity='0.5' d="M90.9873 90.0039H225.68" stroke="white" stroke-miterlimit="10"/>
<path opacity='0.5' d="M90.9873 90.0048L225.173 78.2617" stroke="white" stroke-miterlimit="10"/>
<path opacity='0.5' d="M90.9873 90.0043L223.634 66.6133" stroke="white" stroke-miterlimit="10"/>
<path opacity='0.5' d="M90.9873 90.0051L221.097 55.1406" stroke="white" stroke-miterlimit="10"/>
<path opacity='0.5' d="M90.9873 90.0049L217.561 43.9365" stroke="white" stroke-miterlimit="10"/>
<path opacity='0.5' d="M90.9873 90.0045L213.065 33.0732" stroke="white" stroke-miterlimit="10"/>
<path opacity='0.5' d="M90.9873 90.0045L207.633 22.6543" stroke="white" stroke-miterlimit="10"/>
<path opacity='0.5' d="M90.9873 90.0048L201.322 12.7432" stroke="white" stroke-miterlimit="10"/>
<path opacity='0.5' d="M90.9873 90.0033L194.169 3.41699" stroke="white" stroke-miterlimit="10"/>
<path opacity='0.5' d="M90.9873 90.0038L186.232 -5.24121" stroke="white" stroke-miterlimit="10"/>
<path opacity='0.5' d="M90.9873 90.0043L177.566 -13.1777" stroke="white" stroke-miterlimit="10"/>
<path opacity='0.5' d="M90.9873 90.0042L168.249 -20.3379" stroke="white" stroke-miterlimit="10"/>
<path opacity='0.5' d="M90.9873 90.0033L158.338 -26.6504" stroke="white" stroke-miterlimit="10"/>
<path opacity='0.5' d="M90.9873 90.004L147.911 -32.0732" stroke="white" stroke-miterlimit="10"/>
<path opacity='0.5' d="M90.9873 90.0037L137.056 -36.5693" stroke="white" stroke-miterlimit="10"/>
<path opacity='0.5' d="M90.9873 90.004L125.852 -40.1055" stroke="white" stroke-miterlimit="10"/>
<path opacity='0.5' d="M90.9873 90.0043L114.378 -42.6504" stroke="white" stroke-miterlimit="10"/>
<path opacity='0.5' d="M90.9873 90.0044L102.723 -44.1807" stroke="white" stroke-miterlimit="10"/>
</g>
<path d="M87.2129 179.572L79.26 171.619L87.2129 179.572Z" fill="#0E0E0E"/>
<path d="M0.436143 92.7946L19.1251 74.0977L0.436143 92.7946L16.3341 108.7L0 125.035L16.3341 108.7L0.436143 92.7946Z" fill="#0E0E0E"/>
<path d="M54.973 180L71.3071 163.666L79.26 171.619L71.3071 163.666L54.973 180Z" fill="white"/>
<path d="M87.2128 179.572L105.91 160.875L125.035 180L105.91 160.875L87.2128 179.572Z" fill="white"/>
<path d="M0 125.035L54.9729 180L0 125.035Z" fill="white"/>
</svg>

<svg preserveAspectRatio="none" viewBox="0 0 180 180" fill="none" xmlns="http://www.w3.org/2000/svg"><path fill-rule="evenodd" clip-rule="evenodd" d="M180 0H0v180h180V0Zm-71.299 40.122c5.876 0 11.751-2.157 16.326-6.486l21.338 21.337c-4.155 4.409-6.486 10.45-6.486 16.326a23.8 23.8 0 0 0 6.073 15.882l-1.903 1.903c-9.293 9.293-9.293 24.351 0 33.644l2.308 2.307-21.33 21.329-2.307-2.307a23.772 23.772 0 0 0-33.636 0l-1.903 1.903c-4.511-4.052-10.006-6.074-15.882-6.074-5.875 0-11.75 2.157-16.326 6.486l-21.337-21.337c4.155-4.409 6.486-10.451 6.486-16.326a23.8 23.8 0 0 0-6.074-15.882l1.903-1.903c9.293-9.293 9.293-24.35 0-33.644l-2.307-2.307 21.33-21.33 2.307 2.308a23.703 23.703 0 0 0 16.817 6.97 23.716 23.716 0 0 0 16.818-6.97l1.903-1.903c4.512 4.052 10.007 6.074 15.882 6.074Z" fill="#fff"/><path d="m179.572 87.213-7.953-7.953-7.953-7.953L180 54.973 125.035.008l-16.334 16.334L92.795.436 74.098 19.133 54.973.008.008 54.973l19.125 19.125L.436 92.795 16.342 108.7.008 125.035 54.973 180l16.334-16.335 7.953 7.953 7.953 7.953 18.697-18.697L125.035 180 180 125.035l-19.125-19.125 18.697-18.697Zm-33.62-.024-1.903 1.903c-9.293 9.293-9.293 24.35 0 33.643l2.307 2.308-21.329 21.329-2.307-2.307a23.772 23.772 0 0 0-33.636 0l-1.903 1.903a23.71 23.71 0 0 0-15.882-6.074c-5.685 0-11.75 2.165-16.326 6.486l-21.337-21.337a23.787 23.787 0 0 0 6.486-16.327c0-6.073-2.173-11.528-6.074-15.882l1.903-1.903c9.293-9.293 9.293-24.35 0-33.643l-2.307-2.307 21.329-21.33 2.307 2.308a23.716 23.716 0 0 0 16.818 6.97c6.082 0 12.18-2.324 16.818-6.97l1.903-1.903a23.71 23.71 0 0 0 15.882 6.073c5.685 0 11.751-2.164 16.326-6.486l21.337 21.338a23.789 23.789 0 0 0-6.486 16.326c0 6.073 2.173 11.529 6.074 15.882Z" fill="current"/><mask id="a" style="mask-type:luminance" maskUnits="userSpaceOnUse" x="0" y="0" width="180" height="180"><path d="m125.027 33.636 21.337 21.337a23.789 23.789 0 0 0-6.486 16.326c0 6.074 2.173 11.529 6.074 15.882l-1.903 1.903c-9.293 9.293-9.293 24.35 0 33.643l2.307 2.308-21.329 21.329-2.307-2.307a23.772 23.772 0 0 0-33.636 0l-1.903 1.903a23.71 23.71 0 0 0-15.882-6.074c-5.685 0-11.75 2.165-16.326 6.486l-21.337-21.337a23.787 23.787 0 0 0 6.486-16.326c0-6.074-2.173-11.53-6.074-15.882l1.903-1.903c9.293-9.293 9.293-24.35 0-33.644l-2.307-2.307 21.329-21.33 2.307 2.308a23.716 23.716 0 0 0 16.818 6.97c6.082 0 12.18-2.324 16.818-6.97l1.903-1.903A23.71 23.71 0 0 0 108.7 40.12c5.685 0 11.751-2.164 16.326-6.486ZM125.035 0l-16.334 16.334L92.795.428 74.098 19.125 54.973 0 .008 54.965 19.133 74.09.436 92.787l15.906 15.906L.008 125.027l54.965 54.965 16.334-16.334 15.906 15.906 18.697-18.697 19.125 19.125L180 125.027l-19.125-19.125 18.697-18.697-15.906-15.906L180 54.965 125.035 0Z" fill="current"/></mask><g mask="url(#a)" stroke="#fff" stroke-miterlimit="10"><path opacity=".5" d="M90.987 90.004v-134.7M90.988 90.004 79.245-44.18M90.988 90.004 67.597-42.65M90.988 90.004 56.124-40.106M90.988 90.004 44.919-36.57M90.988 90.004 34.064-32.073M90.988 90.003 23.638-26.65M90.988 90.004 13.726-20.338M90.988 90.004 4.409-13.178M90.987 90.004-4.258-5.241M90.987 90.003-12.195 3.417M90.988 90.005-19.347 12.743M90.988 90.004l-116.654-67.35M90.987 90.004-31.09 33.074M90.988 90.005-35.585 43.937M90.988 90.005l-130.11-34.864M90.987 90.004-41.66 66.614M90.988 90.005-43.198 78.262M90.987 90.004h-134.7M90.988 90.004l-134.186 11.735M90.987 90.004-41.66 113.395M90.988 90.004l-130.11 34.856M90.988 90.004l-126.573 46.068M90.987 90.004-31.09 146.927M90.988 90.004l-116.654 67.342M90.988 90.004l-110.335 77.254M90.987 90.004l-103.182 86.578M90.987 90.004l-95.245 95.245M90.988 90.004 4.409 193.186M90.988 90.004 13.726 200.338M90.988 90.004 23.638 206.65M90.988 90.004 34.064 212.08M90.988 90.004 44.919 216.577M90.988 90.004 56.124 220.105M90.988 90.004 67.597 222.65M90.988 90.004 79.245 224.18M90.987 90.004v134.692M90.987 90.004l11.736 134.177M90.987 90.004l23.391 132.647M90.987 90.004l34.865 130.101M90.987 90.004l46.069 126.573M90.987 90.004l56.924 122.077M90.987 90.004l67.351 116.646M90.987 90.004l77.262 110.334M90.987 90.004l86.579 103.182M90.987 90.004l95.245 95.245M90.987 90.004l103.182 86.578M90.987 90.004l110.335 77.254M90.987 90.004l116.646 67.342M90.987 90.004l122.078 56.923M90.987 90.004l126.574 46.068M90.987 90.004l130.11 34.856M90.987 90.004l132.647 23.391M90.987 90.004l134.186 11.735M90.987 90.004H225.68M90.987 90.005l134.186-11.743M90.987 90.004l132.647-23.39M90.987 90.005l130.11-34.864M90.987 90.005l126.574-46.068M90.987 90.004l122.078-56.93M90.987 90.004l116.646-67.35M90.987 90.005l110.335-77.262M90.987 90.003 194.17 3.417M90.987 90.004l95.245-95.245M90.987 90.004l86.579-103.182M90.987 90.004 168.25-20.338M90.987 90.003 158.338-26.65M90.987 90.004l56.924-122.077M90.987 90.004 137.056-36.57M90.987 90.004l34.865-130.11M90.987 90.004 114.378-42.65M90.987 90.004 102.723-44.18"/></g><path d="m87.213 179.572-7.953-7.953 7.953 7.953ZM.436 92.795l18.69-18.697L.435 92.795 16.334 108.7 0 125.035 16.334 108.7.436 92.795Z" fill="#0E0E0E"/><path d="m54.973 180 16.334-16.334 7.953 7.953-7.953-7.953L54.973 180ZM87.213 179.572l18.697-18.697L125.035 180l-19.125-19.125-18.697 18.697ZM0 125.035 54.973 180 0 125.035Z" fill="#fff"/></svg>
